X: 3
T: Old French (R-6)
I: Old French   R-6 D   reel
%C: R-6
%C: New England
M: C|
Z: Transcribed to abc by Mary Lou Knack
R: reel
K: D
(3ABc|: "D"d2cd BdAF | DFAd f2ed| "A"cdef gece| "D"defd A2 (3ABc|
"D"d2cd BdAF | DFAd f2ed| "A"cdef gece|1 "D"d2f2 d2 (3ABc :|2 "D"d2f2 d2 |]
|:cd| "A"efed c2A2| AEAc e2dc| "G"BGBd gfed |1 "A"cAce a2 :|2 "A"c2A2 A2 |]
|:cd| "A"efed c2A2| AEAc e2dc| "G"BGBd gfed |1 "A"cAce a2 :|2 "A"c2A2 B2c2 |]
%%text 1/28/02
